X: 917
T: Alistair Anderson's Fancy
R: reel
M: 4/4
K: Gmajor
|:(3DEF|G>BF>G E>GD>C|B,>DG>B c>ed>c|B>GD>G B>dc>B|A>GF>G A>cB>A|
G>BF>G E>GD>C|B,>DG>B c>ed>c|B>gf>e d>BA>c|B2 G2 G2:|
F>G|A>cF>A D>FA>c|B>dG>B D>GB>d|c>eA>c B>dG>B|A>GF>E D>GF>G|
A>cF>A D>FA>c|B>dG>B D>GB>d|c>eg>e d>BA>c|B2 G2 G2 F>G|
A>cF>A D>FA>c|B>dG>B D>GB>d|c>eA>c B>dG>B|A>gf>e d>cB>A|
G>BF>G E>GD>C|B,>DG>B c>ed>c|B>gf>e d>BA>c|B2 G2 G2||

